X: 1
T:Old Mother Oxford,  Steeple Claydon
M:4/4
L:1/8
Q:1/4=120
A:Steeple Claydon
P:A9
K:G
P:A
GABc d2c2|B2A2 G4  |GABc d2g2|f2g2 a4|
b2ag a2gf|g2e2 d2ef|g2B2 c2e2|dcBA G4||
